lib/healthicons/icons/outline/devices/surgical_sterilization.svg

<svg fill="none" height="48" viewBox="0 0 48 48" width="48" xmlns="http://www.w3.org/2000/svg"><g clip-rule="evenodd" fill="#333" fill-rule="evenodd"><path d="m24 36c.8063 0 1.5568.2385 2.1849.6489l1.8166-32.6489.9985.05555.9984-.05555 1.8166 32.6489c.6282-.4104 1.3787-.6489 2.185-.6489 2.2091 0 4 1.7909 4 4s-1.7909 4-4 4c-2.1991 0-3.9837-1.7746-3.9999-3.9698l-.2236-4.018h-1.5531l-.2235 4.018c-.0163 2.1952-1.8009 3.9698-3.9999 3.9698-2.2092 0-4-1.7909-4-4s1.7908-4 4-4zm5-13.9442.6652 11.9564h-1.3305zm0-3.021c.5523 0 1-.4471 1-.9986s-.4477-.9986-1-.9986-1 .4471-1 .9986.4477.9986 1 .9986zm-5 18.9652c-1.1046 0-2 .8954-2 2s.8954 2 2 2 2-.8954 2-2-.8954-2-2-2zm8 2c0-1.1046.8954-2 2-2s2 .8954 2 2-.8954 2-2 2-2-.8954-2-2z"/><path d="m16 4.23381-1.5145.9087.5145.85749c-.5145-.85749-.5159-.85665-.5159-.85665l-.0015.0009-.0032.00195-.0074.00452-.0184.01155c-.0139.00883-.031.01995-.0511.03347-.0401.02706-.0922.06374-.1547.11103-.1249.09459-.291.23148-.4853.41834-.3892.37426-.8885.94626-1.3955 1.77535-1.0163 1.66239-2.0418 4.32284-2.3033 8.43284-.07968 1.2526.6449 2.3082 1.6788 2.7887-.4584.4532-.7425 1.0824-.7425 1.778v21c0 1.3807 1.1193 2.5 2.5 2.5s2.5-1.1193 2.5-2.5v-21c0-.8936-.4688-1.6776-1.1739-2.1197.7138-.5484 1.1739-1.4106 1.1739-2.3803zm-3.9403 11.82649c.2363-3.714 1.1321-6.0256 1.9403-7.39439v7.33409c0 .5523-.4477 1-1 1-.5686 0-.9712-.4539-.9403-.9397zm1.9403 4.5255v-.0858c0-.2761-.2239-.5-.5-.5-.2762 0-.5.2239-.5.5v1.0858zm0 2.8284v1.1716l-1 1v-1.1716zm0 5.1716v-1.1716l-1 1v1.1716zm0 2.8284v10.0858c0 .2761-.2239.5-.5.5-.2762 0-.5-.2239-.5-.5v-9.0858z"/></g></svg>

<svg width="48" height="48" viewBox="0 0 48 48" fill="none" xmlns="http://www.w3.org/2000/svg">
<path fill-rule="evenodd" clip-rule="evenodd" d="M24 36C24.8063 36 25.5568 36.2385 26.1849 36.6489L28.0015 4L29 4.05555L29.9984 4L31.815 36.6489C32.4432 36.2385 33.1937 36 34 36C36.2091 36 38 37.7909 38 40C38 42.2091 36.2091 44 34 44C31.8009 44 30.0163 42.2254 30.0001 40.0302L29.7765 36.0122L28.2234 36.0122L27.9999 40.0302C27.9836 42.2254 26.199 44 24 44C21.7908 44 20 42.2091 20 40C20 37.7909 21.7908 36 24 36ZM29 22.0558L29.6652 34.0122H28.3347L29 22.0558ZM29 19.0348C29.5523 19.0348 30 18.5877 30 18.0362C30 17.4847 29.5523 17.0376 29 17.0376C28.4477 17.0376 28 17.4847 28 18.0362C28 18.5877 28.4477 19.0348 29 19.0348ZM24 38C22.8954 38 22 38.8954 22 40C22 41.1046 22.8954 42 24 42C25.1046 42 26 41.1046 26 40C26 38.8954 25.1046 38 24 38ZM32 40C32 38.8954 32.8954 38 34 38C35.1046 38 36 38.8954 36 40C36 41.1046 35.1046 42 34 42C32.8954 42 32 41.1046 32 40Z" fill="#333333"/>
<path fill-rule="evenodd" clip-rule="evenodd" d="M16 4.23381L14.4855 5.14251L15 6C14.4855 5.14251 14.4841 5.14335 14.4841 5.14335L14.4826 5.14425L14.4794 5.1462L14.472 5.15072L14.4536 5.16227C14.4397 5.1711 14.4226 5.18222 14.4025 5.19574C14.3624 5.2228 14.3103 5.25948 14.2478 5.30677C14.1229 5.40136 13.9568 5.53825 13.7625 5.72511C13.3733 6.09937 12.874 6.67137 12.367 7.50046C11.3507 9.16285 10.3252 11.8233 10.0637 15.9333C9.98402 17.1859 10.7086 18.2415 11.7425 18.722C11.2841 19.1752 11 19.8044 11 20.5V41.5C11 42.8807 12.1193 44 13.5 44C14.8807 44 16 42.8807 16 41.5V20.5C16 19.6064 15.5312 18.8224 14.8261 18.3803C15.5399 17.8319 16 16.9697 16 16V4.23381ZM12.0597 16.0603C12.296 12.3463 13.1918 10.0347 14 8.66591V16C14 16.5523 13.5523 17 13 17C12.4314 17 12.0288 16.5461 12.0597 16.0603ZM14 20.5858V20.5C14 20.2239 13.7761 20 13.5 20C13.2238 20 13 20.2239 13 20.5V21.5858L14 20.5858ZM14 23.4142V24.5858L13 25.5858V24.4142L14 23.4142ZM14 28.5858V27.4142L13 28.4142V29.5858L14 28.5858ZM14 31.4142V41.5C14 41.7761 13.7761 42 13.5 42C13.2238 42 13 41.7761 13 41.5V32.4142L14 31.4142Z" fill="#333333"/>
</svg>
